storage/app/icons/phosphoricons/regular/dice-six.svg

<svg xmlns="http://www.w3.org/2000/svg" fill="currentColor" viewBox="0 0 256 256"><path d="M192 32H64a32 32 0 0 0-32 32v128a32 32 0 0 0 32 32h128a32 32 0 0 0 32-32V64a32 32 0 0 0-32-32m16 160a16 16 0 0 1-16 16H64a16 16 0 0 1-16-16V64a16 16 0 0 1 16-16h128a16 16 0 0 1 16 16ZM104 84a12 12 0 1 1-12-12 12 12 0 0 1 12 12m72 0a12 12 0 1 1-12-12 12 12 0 0 1 12 12m-72 44a12 12 0 1 1-12-12 12 12 0 0 1 12 12m72 0a12 12 0 1 1-12-12 12 12 0 0 1 12 12m-72 44a12 12 0 1 1-12-12 12 12 0 0 1 12 12m72 0a12 12 0 1 1-12-12 12 12 0 0 1 12 12"/></svg>

<svg xmlns="http://www.w3.org/2000/svg" viewBox="0 0 256 256" fill="currentColor"><path d="M192,32H64A32,32,0,0,0,32,64V192a32,32,0,0,0,32,32H192a32,32,0,0,0,32-32V64A32,32,0,0,0,192,32Zm16,160a16,16,0,0,1-16,16H64a16,16,0,0,1-16-16V64A16,16,0,0,1,64,48H192a16,16,0,0,1,16,16ZM104,84A12,12,0,1,1,92,72,12,12,0,0,1,104,84Zm72,0a12,12,0,1,1-12-12A12,12,0,0,1,176,84Zm-72,44a12,12,0,1,1-12-12A12,12,0,0,1,104,128Zm72,0a12,12,0,1,1-12-12A12,12,0,0,1,176,128Zm-72,44a12,12,0,1,1-12-12A12,12,0,0,1,104,172Zm72,0a12,12,0,1,1-12-12A12,12,0,0,1,176,172Z"/></svg>
